X:9
%%newpage
T:Red Haired Boy / Kitchen Girl
T:Red Haired Boy
% Nottingham Music Database
S:Fiddler's Fakebook, via PR
M:C|
L:1/4
K:A
Q:1/2=110
A/2F/2|"A"EA A/2B/2c/2d/2|"A"e/2f/2e/2c/2 "D"dc/2d/2|\
"A"e/2d/2c/2B/2 A/2B/2c/2A/2|"G"B/2A/2E/2F/2 =G3/2F/2|
"A"EA A/2B/2c/2d/2|"A"e/2f/2e/2c/2 "D"dc/2d/2|"A"ea/2g/2 "E7"a/2f/2e/2d/2|\
"A"cA A::
e/2f/2|"G"=g/2f/2e/2f/2 g/2f/2e/2f/2|"G"=g/2f/2e/2c/2 "(D)"dc/2d/2|"A"e/2d/2c/2B/2 A/2B/2c/2A/2|\
"G"B/2A/2E/2F/2 =G3/2F/2|
"A"EA A/2B/2c/2d/2|"A"e/2f/2e/2c/2 "D"dc/2d/2|"A"!D.C.!ea/2g/2 "E7"a/2f/2e/2d/2|"A"cA A:|
!coda!"E"ea/2g/2 "F#"a/2f/2e/2d/2|"G"cA "G#"A|
T:
